icon/mi/ferry-JP.svg

<?xml version="1.0" encoding="UTF-8"?>
<svg viewBox="0 0 15 15" xmlns="http://www.w3.org/2000/svg" id="ferry-JP" height="1em" width="1em">
  <path d="M9.5 12.5H5.5L5.5 8C5.5 6.91153 6.07979 5.44812 6.85389 4.13809C7.07346 3.76652 7.29495 3.43049 7.5 3.1451C7.70505 3.43049 7.92654 3.76652 8.14611 4.13809C8.92021 5.44812 9.5 6.91153 9.5 8V12.5ZM7.5 1C7 1 4 5 4 8V12.5C4 13.3284 4.67157 14 5.5 14H9.5C10.3284 14 11 13.329 11 12.5006V8C11 5 8 1 7.5 1Z"/>
</svg>

<svg width="15" height="15" xmlns="http://www.w3.org/2000/svg"><path d="M9.5 12.5h-4V8c0-1.088.58-2.552 1.354-3.862.22-.371.44-.708.646-.993.205.285.427.622.646.993C8.92 5.448 9.5 6.912 9.5 8v4.5ZM7.5 1C7 1 4 5 4 8v4.5A1.5 1.5 0 0 0 5.5 14h4a1.5 1.5 0 0 0 1.5-1.5V8c0-3-3-7-3.5-7Z"/></svg>
